packages/smooth_app/assets/icons/visor_icon.svg

<svg width="36" height="34" viewBox="0 0 36 34" fill="none" xmlns="http://www.w3.org/2000/svg">
<path d="M2.58151 24.8626C6.82486 32.713 16.5982 35.6095 24.3691 31.3228C25.5833 30.6514 26.6783 29.8465 27.6454 28.9341L33.4608 33.6297L36 30.419L30.2314 25.7621C33.2393 20.9417 33.6525 14.6622 30.764 9.31675C26.5249 1.46637 16.7516 -1.43449 8.98061 2.85224C1.20967 7.13896 -1.66183 17.0122 2.58151 24.8626ZM6.15172 22.8914C2.98625 17.0294 5.12496 9.66107 10.9276 6.45894C16.7303 3.26111 24.024 5.42169 27.1938 11.2837C30.3592 17.1456 28.2205 24.514 22.4179 27.7161C16.6152 30.9139 9.32144 28.7533 6.15172 22.8914Z" fill="white"/>
</svg>

<svg width="36" height="34" fill="none" xmlns="http://www.w3.org/2000/svg"><path d="M2.582 24.863c4.243 7.85 14.016 10.746 21.787 6.46a16.165 16.165 0 0 0 3.276-2.389l5.816 4.696L36 30.419l-5.769-4.657c3.008-4.82 3.422-11.1.533-16.445-4.24-7.85-14.012-10.751-21.783-6.465-7.771 4.287-10.643 14.16-6.4 22.01Zm3.57-1.972C2.986 17.03 5.125 9.661 10.928 6.46c5.802-3.198 13.096-1.037 16.266 4.825 3.165 5.862 1.027 13.23-4.776 16.432-5.803 3.198-13.097 1.037-16.266-4.825Z" fill="#fff"/></svg>
